dist/svg/flower-line.svg

<svg xmlns="http://www.w3.org/2000/svg" viewBox="0 0 24 24"><path d="M11.413 2.532c-.773.794-1.186 1.358-1.529 2.088-.39.83-.644 1.913-.644 2.74 0 .198-.011.36-.024.36a1 1 0 0 1-.172-.117c-.396-.314-1.151-.726-1.693-.924-.814-.299-1.392-.392-2.641-.426l-.95-.026v.907c0 1.204.096 1.841.402 2.671a6.76 6.76 0 0 0 4.033 4.033c.761.281 1.487.402 2.405.402h.64v2.281l-.23-.187a4.66 4.66 0 0 0-2.614-1.053c-.596-.053-2.704-.052-3.031.001a1.16 1.16 0 0 0-.723.365c-.354.351-.455.791-.347 1.503.245 1.605 1.311 2.876 2.844 3.391.633.213.766.219 4.861.219s4.228-.006 4.861-.219c1.576-.529 2.656-1.859 2.86-3.521.078-.635-.029-1.041-.363-1.373a1.16 1.16 0 0 0-.723-.365c-.327-.053-2.435-.054-3.031-.001a4.66 4.66 0 0 0-2.614 1.053l-.23.187V14.24h.64c.361 0 .812-.026 1.034-.059a6.8 6.8 0 0 0 4.747-3.062c.427-.663.779-1.557.938-2.381.07-.363.152-1.601.16-2.414l.001-.097-.97.026c-1.268.034-1.842.126-2.661.426-.542.198-1.297.61-1.693.924a1 1 0 0 1-.172.117c-.013 0-.024-.162-.024-.36s-.028-.544-.061-.769c-.182-1.213-.604-2.229-1.314-3.169C13.151 3.114 12.059 1.96 12 1.96c-.016 0-.28.258-.587.572m.782 1.801c.712.964 1.045 1.973 1.045 3.165 0 .866-.161 1.579-.52 2.307-.166.336-.56.952-.664 1.038-.078.065-.124.02-.397-.386a5.04 5.04 0 0 1-.899-2.954c0-.819.122-1.419.428-2.115.21-.479.716-1.268.812-1.268.021 0 .108.096.195.213M5.8 7.82A5.18 5.18 0 0 1 8.7 9.3a5.18 5.18 0 0 1 1.48 2.9c.09.597.113.55-.25.513-1.641-.169-3.142-1.154-3.982-2.613-.345-.599-.6-1.389-.653-2.022-.031-.37-.079-.346.505-.258m12.904.21a5.24 5.24 0 0 1-3.284 4.343 5 5 0 0 1-1.33.337c-.386.04-.36.089-.27-.51.251-1.672 1.332-3.139 2.88-3.911.54-.269 1.399-.504 1.916-.524l.115-.005zm-9.79 8.844c.571.172 1.029.464 1.47.938.377.407.652.889.753 1.32l.026.112-1.652-.013c-1.577-.012-1.663-.017-1.911-.101-.946-.32-1.69-1.204-1.819-2.163l-.029-.213 1.434.016c1.336.015 1.454.022 1.728.104m9.305.096c-.129.955-.875 1.84-1.819 2.16-.248.084-.334.089-1.911.101l-1.652.013.026-.112c.221-.95 1.187-1.952 2.152-2.232.406-.118.579-.13 1.919-.135l1.314-.005z" fill-rule="evenodd"/></svg>

<svg fill="none" xmlns="http://www.w3.org/2000/svg" viewBox="0 0 24 24"><path d="M11.413 2.532 C 10.640 3.326,10.227 3.890,9.884 4.620 C 9.494 5.450,9.240 6.533,9.240 7.360 C 9.240 7.558,9.229 7.720,9.216 7.720 C 9.202 7.720,9.125 7.667,9.044 7.603 C 8.648 7.289,7.893 6.877,7.351 6.679 C 6.537 6.380,5.959 6.287,4.710 6.253 L 3.760 6.227 3.760 7.134 C 3.760 8.338,3.856 8.975,4.162 9.805 C 4.857 11.689,6.311 13.143,8.195 13.838 C 8.956 14.119,9.682 14.240,10.600 14.240 L 11.240 14.240 11.240 15.380 L 11.240 16.521 11.010 16.334 C 10.249 15.714,9.393 15.369,8.396 15.281 C 7.800 15.228,5.692 15.229,5.365 15.282 C 5.047 15.334,4.864 15.426,4.642 15.647 C 4.288 15.998,4.187 16.438,4.295 17.150 C 4.540 18.755,5.606 20.026,7.139 20.541 C 7.772 20.754,7.905 20.760,12.000 20.760 C 16.095 20.760,16.228 20.754,16.861 20.541 C 18.437 20.012,19.517 18.682,19.721 17.020 C 19.799 16.385,19.692 15.979,19.358 15.647 C 19.136 15.426,18.953 15.334,18.635 15.282 C 18.308 15.229,16.200 15.228,15.604 15.281 C 14.607 15.369,13.751 15.714,12.990 16.334 L 12.760 16.521 12.760 15.380 L 12.760 14.240 13.400 14.240 C 13.761 14.240,14.212 14.214,14.434 14.181 C 16.406 13.885,18.109 12.786,19.181 11.119 C 19.608 10.456,19.960 9.562,20.119 8.738 C 20.189 8.375,20.271 7.137,20.279 6.324 L 20.280 6.227 19.310 6.253 C 18.042 6.287,17.468 6.379,16.649 6.679 C 16.107 6.877,15.352 7.289,14.956 7.603 C 14.875 7.667,14.798 7.720,14.784 7.720 C 14.771 7.720,14.760 7.558,14.760 7.360 C 14.760 7.162,14.732 6.816,14.699 6.591 C 14.517 5.378,14.095 4.362,13.385 3.422 C 13.151 3.114,12.059 1.960,12.000 1.960 C 11.984 1.960,11.720 2.218,11.413 2.532 M12.195 4.333 C 12.907 5.297,13.240 6.306,13.240 7.498 C 13.240 8.364,13.079 9.077,12.720 9.805 C 12.554 10.141,12.160 10.757,12.056 10.843 C 11.978 10.908,11.932 10.863,11.659 10.457 C 11.042 9.538,10.760 8.612,10.760 7.503 C 10.760 6.684,10.882 6.084,11.188 5.388 C 11.398 4.909,11.904 4.120,12.000 4.120 C 12.021 4.120,12.108 4.216,12.195 4.333 M5.800 7.820 C 6.891 7.984,7.897 8.497,8.700 9.300 C 9.503 10.103,10.016 11.109,10.180 12.200 C 10.270 12.797,10.293 12.750,9.930 12.713 C 8.289 12.544,6.788 11.559,5.948 10.100 C 5.603 9.501,5.348 8.711,5.295 8.078 C 5.264 7.708,5.216 7.732,5.800 7.820 M18.704 8.030 C 18.506 9.977,17.235 11.658,15.420 12.373 C 14.968 12.551,14.514 12.666,14.090 12.710 C 13.704 12.750,13.730 12.799,13.820 12.200 C 14.071 10.528,15.152 9.061,16.700 8.289 C 17.240 8.020,18.099 7.785,18.616 7.765 L 18.731 7.760 18.704 8.030 M8.914 16.874 C 9.485 17.046,9.943 17.338,10.384 17.812 C 10.761 18.219,11.036 18.701,11.137 19.132 L 11.163 19.244 9.511 19.231 C 7.934 19.219,7.848 19.214,7.600 19.130 C 6.654 18.810,5.910 17.926,5.781 16.967 L 5.752 16.754 7.186 16.770 C 8.522 16.785,8.640 16.792,8.914 16.874 M18.219 16.970 C 18.090 17.925,17.344 18.810,16.400 19.130 C 16.152 19.214,16.066 19.219,14.489 19.231 L 12.837 19.244 12.863 19.132 C 13.084 18.182,14.050 17.180,15.015 16.900 C 15.421 16.782,15.594 16.770,16.934 16.765 L 18.248 16.760 18.219 16.970 " stroke="none" fill-rule="evenodd" fill="currentColor"/></svg>
